icons/code-16.svg

<svg xmlns="http://www.w3.org/2000/svg" width="16" height="16" viewBox="0 0 16 16"><path d="M11.28 3.22l4.25 4.25a.75.75 0 010 1.06l-4.25 4.25a.749.749 0 01-1.275-.326.749.749 0 01.215-.734L13.94 8l-3.72-3.72a.749.749 0 01.326-1.275.749.749 0 01.734.215zm-6.56 0a.751.751 0 011.042.018.751.751 0 01.018 1.042L2.06 8l3.72 3.72a.749.749 0 01-.326 1.275.749.749 0 01-.734-.215L.47 8.53a.75.75 0 010-1.06z"/></svg>

<svg xmlns="http://www.w3.org/2000/svg" width="16" height="16" viewBox="0 0 16 16">
  <defs/>
  <path d="M11.28,3.22 L15.53,7.47 C15.822,7.763 15.822,8.237 15.53,8.53 L11.28,12.78 C11.093,12.981 10.811,13.063 10.546,12.995 C10.28,12.928 10.072,12.72 10.005,12.454 C9.937,12.189 10.019,11.907 10.22,11.72 L13.94,8 L10.22,4.28 C10.019,4.093 9.937,3.811 10.005,3.546 C10.072,3.28 10.28,3.072 10.546,3.005 C10.811,2.937 11.093,3.019 11.28,3.22 Z M4.72,3.22 C5.016,2.945 5.476,2.953 5.762,3.238 C6.047,3.524 6.055,3.984 5.78,4.28 L2.06,8 L5.78,11.72 C5.981,11.907 6.063,12.189 5.995,12.454 C5.928,12.72 5.72,12.928 5.454,12.995 C5.189,13.063 4.907,12.981 4.72,12.78 L0.47,8.53 C0.178,8.237 0.178,7.763 0.47,7.47 Z"/>
</svg>
